img/icons/htl_graduated-icon.svg

<svg width="70" height="51" viewBox="0 0 70 51" fill="none" xmlns="http://www.w3.org/2000/svg">
<path d="M52.0212 10.7795C52.7703 10.7795 53.3776 10.234 53.3776 9.561C53.3776 8.88804 52.7703 8.34253 52.0212 8.34253H52.0198C51.2706 8.34253 50.6641 8.88804 50.6641 9.561C50.6641 10.234 51.2721 10.7795 52.0212 10.7795Z" fill="url(#paint0_linear)"/>
<rect x="1.89844" y="37.5649" width="8.00278" height="12.3433" fill="url(#paint1_linear)"/>
<path d="M68.7982 17.3344L57.4078 11.0877C56.7685 10.7371 55.9337 10.9183 55.5433 11.4927C55.1529 12.067 55.3547 12.8169 55.9941 13.1675L65.4883 18.3742L36.8206 34.0963L8.15306 18.3744L36.8206 2.6525L46.7161 8.07937C47.3554 8.43004 48.1902 8.24873 48.5806 7.67437C48.971 7.1 48.7691 6.35018 48.1297 5.99952L37.5274 0.185061C37.0935 -0.0528979 36.5477 -0.0528979 36.1138 0.185061L4.84317 17.3344C4.44072 17.5552 4.19494 17.9478 4.19386 18.3713C4.1925 18.3724 4.19114 18.3733 4.18979 18.3744V30.3716C1.77784 30.9668 0 32.9528 0 35.3059V48.2212C0 48.8941 0.607261 49.4396 1.3564 49.4396H10.0374C10.7865 49.4396 11.3938 48.8941 11.3938 48.2212V35.3059C11.3938 32.8557 9.4666 30.8033 6.90259 30.3048V20.5436L16.4137 25.7597V39.2414C16.4137 39.666 16.6597 40.06 17.0633 40.2813L33.7389 49.4266C34.8131 50.0157 36.0175 50.3102 37.222 50.3102C38.4264 50.3102 39.6308 50.0157 40.7051 49.4266L57.3808 40.2813C57.7843 40.06 58.0304 39.666 58.0304 39.2414V25.3196L68.7982 19.4144C69.2017 19.1931 69.4478 18.7991 69.4478 18.3745C69.4478 17.9499 69.2017 17.5557 68.7982 17.3344ZM2.7128 47.0028V38.8751H8.68097V47.0028H2.7128ZM8.68097 35.3059V36.4383H2.7128V35.3059C2.7128 33.8278 4.05144 32.6253 5.69689 32.6253C7.34234 32.6253 8.68097 33.8278 8.68097 35.3059ZM55.3176 38.5578L51.4979 40.6526V38.9613C51.4979 38.2883 50.8907 37.7428 50.1415 37.7428C49.3924 37.7428 48.7851 38.2883 48.7851 38.9613V42.1403L39.2914 47.3468C38.0149 48.047 36.4289 48.047 35.1524 47.3468L19.1263 38.5578V27.2475L36.1138 36.5638C36.3308 36.6828 36.5756 36.7423 36.8206 36.7423C37.0656 36.7423 37.3104 36.6828 37.5274 36.5638L55.3176 26.8073V38.5578Z" fill="url(#paint2_linear)"/>
<path d="M50.1415 35.3068C50.4983 35.3068 50.8482 35.1764 51.1005 34.9498C51.3528 34.7231 51.4979 34.4088 51.4979 34.0883C51.4979 33.7679 51.3528 33.4535 51.1005 33.2269C50.8482 33.0002 50.4983 32.8699 50.1415 32.8699C49.7835 32.8699 49.4349 33.0002 49.1826 33.2269C48.9289 33.4535 48.7852 33.7679 48.7852 34.0883C48.7852 34.4088 48.9289 34.7231 49.1826 34.9498C49.4349 35.1764 49.7835 35.3068 50.1415 35.3068Z" fill="url(#paint3_linear)"/>
<path d="M36.8213 19.5919C36.4645 19.5919 36.1146 19.4615 35.8623 19.2349C35.61 19.0083 35.4648 18.6939 35.4648 18.3735C35.4648 18.053 35.61 17.7387 35.8623 17.512C36.1146 17.2854 36.4645 17.155 36.8213 17.155C37.178 17.155 37.528 17.2854 37.7803 17.512C38.0326 17.7387 38.1777 18.053 38.1777 18.3735C38.1777 18.6939 38.0326 19.0083 37.7803 19.2349C37.528 19.4615 37.178 19.5919 36.8213 19.5919Z" fill="url(#paint4_linear)"/>
<defs>
<linearGradient id="paint0_linear" x1="53.3776" y1="9.561" x2="50.6641" y2="9.561" gradientUnits="userSpaceOnUse">
<stop stop-color="#4CBA85"/>
<stop offset="1" stop-color="#2569AC"/>
</linearGradient>
<linearGradient id="paint1_linear" x1="9.90121" y1="43.7366" x2="1.89844" y2="43.7366" gradientUnits="userSpaceOnUse">
<stop stop-color="#4CBA85"/>
<stop offset="1" stop-color="#2569AC"/>
</linearGradient>
<linearGradient id="paint2_linear" x1="69.4478" y1="25.1584" x2="4.77092e-08" y2="25.1584" gradientUnits="userSpaceOnUse">
<stop stop-color="#4CBA85"/>
<stop offset="1" stop-color="#2569AC"/>
</linearGradient>
<linearGradient id="paint3_linear" x1="51.4979" y1="34.0883" x2="48.7852" y2="34.0883" gradientUnits="userSpaceOnUse">
<stop stop-color="#4CBA85"/>
<stop offset="1" stop-color="#2569AC"/>
</linearGradient>
<linearGradient id="paint4_linear" x1="38.1777" y1="18.3735" x2="35.4648" y2="18.3735" gradientUnits="userSpaceOnUse">
<stop stop-color="#4CBA85"/>
<stop offset="1" stop-color="#2569AC"/>
</linearGradient>
</defs>
</svg>

<svg width="70" height="51" fill="none" xmlns="http://www.w3.org/2000/svg"><path d="M52.021 10.78c.75 0 1.357-.546 1.357-1.219s-.608-1.218-1.357-1.218h-.001c-.75 0-1.356.545-1.356 1.218 0 .673.608 1.219 1.357 1.219z" fill="url(#paint0_linear)"/><path fill="url(#paint1_linear)" d="M1.898 37.565h8.003v12.343H1.898z"/><path d="M68.798 17.334l-11.39-6.246c-.64-.35-1.474-.17-1.865.405-.39.574-.188 1.324.451 1.675l9.494 5.206-28.667 15.722L8.153 18.374 36.821 2.653l9.895 5.426c.64.351 1.474.17 1.865-.405.39-.574.188-1.324-.451-1.674L37.527.185a1.489 1.489 0 00-1.413 0l-31.27 17.15c-.403.22-.65.613-.65 1.036l-.004.003v11.998C1.778 30.967 0 32.952 0 35.306V48.22c0 .673.607 1.219 1.356 1.219h8.681c.75 0 1.357-.546 1.357-1.219V35.306c0-2.45-1.927-4.503-4.491-5.001v-9.761l9.51 5.216v13.48c0 .425.247.819.65 1.04l16.676 9.146a7.25 7.25 0 003.483.883 7.251 7.251 0 003.483-.883l16.676-9.146c.403-.221.65-.615.65-1.04V25.32l10.767-5.906c.404-.22.65-.615.65-1.04 0-.424-.246-.818-.65-1.04zM2.713 47.003v-8.128H8.68v8.128H2.713zM8.68 35.306v1.132H2.713v-1.132c0-1.478 1.338-2.68 2.984-2.68 1.645 0 2.984 1.202 2.984 2.68zm46.637 3.252l-3.82 2.095V38.96c0-.673-.607-1.218-1.356-1.218-.75 0-1.357.545-1.357 1.218v3.18l-9.494 5.206a4.34 4.34 0 01-4.139 0l-16.026-8.79v-11.31l16.988 9.317c.217.119.462.178.707.178.245 0 .49-.06.706-.178l17.79-9.757v11.75z" fill="url(#paint2_linear)"/><path d="M50.142 35.307c.356 0 .706-.13.958-.357.253-.227.398-.541.398-.862 0-.32-.145-.635-.398-.861a1.449 1.449 0 00-.959-.357c-.358 0-.706.13-.958.357a1.163 1.163 0 00-.398.861c0 .32.144.635.398.862.252.226.6.357.959.357z" fill="url(#paint3_linear)"/><path d="M36.821 19.592a1.45 1.45 0 01-.959-.357 1.168 1.168 0 01-.397-.861c0-.321.145-.635.397-.862a1.45 1.45 0 01.96-.357c.356 0 .706.13.958.357.253.227.398.541.398.861 0 .32-.145.635-.398.862a1.45 1.45 0 01-.959.357z" fill="url(#paint4_linear)"/><defs><linearGradient id="paint0_linear" x1="53.378" y1="9.561" x2="50.664" y2="9.561" gradientUnits="userSpaceOnUse"><stop stop-color="#4CBA85"/><stop offset="1" stop-color="#2569AC"/></linearGradient><linearGradient id="paint1_linear" x1="9.901" y1="43.737" x2="1.898" y2="43.737" gradientUnits="userSpaceOnUse"><stop stop-color="#4CBA85"/><stop offset="1" stop-color="#2569AC"/></linearGradient><linearGradient id="paint2_linear" x1="69.448" y1="25.158" x2="0" y2="25.158" gradientUnits="userSpaceOnUse"><stop stop-color="#4CBA85"/><stop offset="1" stop-color="#2569AC"/></linearGradient><linearGradient id="paint3_linear" x1="51.498" y1="34.088" x2="48.785" y2="34.088" gradientUnits="userSpaceOnUse"><stop stop-color="#4CBA85"/><stop offset="1" stop-color="#2569AC"/></linearGradient><linearGradient id="paint4_linear" x1="38.178" y1="18.373" x2="35.465" y2="18.373" gradientUnits="userSpaceOnUse"><stop stop-color="#4CBA85"/><stop offset="1" stop-color="#2569AC"/></linearGradient></defs></svg>
